svg/u1f92d.svg

<svg viewBox="0 0 128 128" xmlns="http://www.w3.org/2000/svg">
  <g>
    <radialGradient id="face_1_" cx="63.6" cy="1400.9" gradientTransform="matrix(1 0 0 1 0 -1338)" gradientUnits="userSpaceOnUse" r="56.9597">
      <stop offset="0.5" stop-color="#FDE030"/>
      <stop offset="0.92" stop-color="#F7C02B"/>
      <stop offset="1" stop-color="#F4A223"/>
    </radialGradient>
    <path id="face" d="M63.6,118.8c-27.9,0-58-17.5-58-55.9S35.7,7,63.6,7c15.5,0,29.8,5.1,40.4,14.4 c11.5,10.2,17.6,24.6,17.6,41.5s-6.1,31.2-17.6,41.4C93.4,113.6,79,118.8,63.6,118.8z" fill="url(#face_1_)"/>
    <linearGradient id="face-2_1_" gradientTransform="matrix(1 0 0 1 0 -1338)" gradientUnits="userSpaceOnUse" x1="63.6" x2="63.6" y1="1456.8" y2="1345">
      <stop offset="0.16" stop-color="#F4A223"/>
      <stop offset="0.33" stop-color="#F7C02B"/>
      <stop offset="0.81" stop-color="#FDE030" stop-opacity="0"/>
    </linearGradient>
    <path id="face-2" d="M63.6,118.8c-27.9,0-58-17.5-58-55.9S35.7,7,63.6,7c15.5,0,29.8,5.1,40.4,14.4 c11.5,10.2,17.6,24.6,17.6,41.5s-6.1,31.2-17.6,41.4C93.4,113.6,79,118.8,63.6,118.8z" fill="url(#face-2_1_)"/>
    <path d="M111.49,29.67c5.33,8.6,8.11,18.84,8.11,30.23c0,16.9-6.1,31.2-17.6,41.4 c-10.6,9.3-25,14.5-40.4,14.5c-18.06,0-37-7.35-48.18-22.94c10.76,17.66,31,25.94,50.18,25.94c15.4,0,29.8-5.2,40.4-14.5 c11.5-10.2,17.6-24.5,17.6-41.4C121.6,50.16,118.13,38.84,111.49,29.67z" fill="#EB8F00"/>
    <radialGradient id="SVGID_1_" cx="43.2347" cy="-153.8817" gradientTransform="matrix(0.98 0 0 -0.93 -15.12 -74.95)" gradientUnits="userSpaceOnUse" r="19.4725">
      <stop offset="0" stop-color="#ED7770"/>
      <stop offset="0.08" stop-color="#ED7770" stop-opacity="0.96"/>
      <stop offset="0.22" stop-color="#ED7770" stop-opacity="0.85"/>
      <stop offset="0.39" stop-color="#ED7770" stop-opacity="0.68"/>
      <stop offset="0.59" stop-color="#ED7770" stop-opacity="0.43"/>
      <stop offset="0.81" stop-color="#ED7770" stop-opacity="0.13"/>
      <stop offset="0.9" stop-color="#ED7770" stop-opacity="0"/>
    </radialGradient>
    <circle cx="27.25" cy="68.16" r="17.5" opacity="0.8" fill="url(#SVGID_1_)" enable-background="new "/>
    <radialGradient id="SVGID_2_" cx="117.8332" cy="-153.8817" gradientTransform="matrix(0.98 0 0 -0.93 -15.12 -74.95)" gradientUnits="userSpaceOnUse" r="19.4725">
      <stop offset="0" stop-color="#ED7770"/>
      <stop offset="0.08" stop-color="#ED7770" stop-opacity="0.96"/>
      <stop offset="0.22" stop-color="#ED7770" stop-opacity="0.85"/>
      <stop offset="0.39" stop-color="#ED7770" stop-opacity="0.68"/>
      <stop offset="0.59" stop-color="#ED7770" stop-opacity="0.43"/>
      <stop offset="0.81" stop-color="#ED7770" stop-opacity="0.13"/>
      <stop offset="0.9" stop-color="#ED7770" stop-opacity="0"/>
    </radialGradient>
    <circle cx="100.36" cy="68.16" r="17.5" opacity="0.8" fill="url(#SVGID_2_)" enable-background="new "/>
    <path d="M49.56,49.12l-0.15-0.2L49,48.38l-0.53-0.58c-0.22-0.24-0.48-0.49-0.73-0.75s-0.56-0.5-0.84-0.72 c-0.26-0.2-0.54-0.39-0.84-0.54c-0.2-0.11-0.42-0.2-0.65-0.25c-0.07-0.01-0.14-0.01-0.21,0h0.1h-0.55c-0.15,0,0,0,0,0h0.08 c0.08,0,0,0,0,0c-0.04-0.01-0.07-0.01-0.11,0c-0.23,0.05-0.45,0.13-0.66,0.25c-0.29,0.16-0.58,0.34-0.84,0.54 c-0.28,0.22-0.57,0.47-0.83,0.72c-0.53,0.51-1,1-1.3,1.39l-0.52,0.6l-0.23,0.27c-1.44,1.61-3.87,1.87-5.62,0.61 c-1.12-0.78-1.69-2.13-1.47-3.47c0,0,0.07-0.41,0.26-1.12c0.31-1.01,0.73-1.99,1.25-2.91c0.86-1.5,2.01-2.8,3.38-3.84 c0.92-0.71,1.95-1.27,3.05-1.66c0.3-0.12,0.61-0.21,0.92-0.29c0.33-0.09,0.66-0.17,1-0.23l0.61-0.09l0.51-0.05h0.55h0.53h0.26h0.51 c0.34,0,0.67,0.09,1,0.14c1.79,0.33,3.48,1.07,4.92,2.18c1.38,1.04,2.53,2.34,3.38,3.84c0.31,0.52,0.58,1.07,0.8,1.64 c0.19,0.44,0.35,0.88,0.48,1.34c0.07,0.24,0.13,0.48,0.16,0.72v0.25c0.3,2.05-1.12,3.95-3.17,4.25c-0.05,0.01-0.09,0.01-0.14,0.02 C52.02,50.88,50.51,50.3,49.56,49.12z" fill="#422B0D"/>
    <path d="M87.06,49.12l-0.16-0.2l-0.43-0.54l-0.53-0.58c-0.22-0.24-0.48-0.49-0.73-0.75s-0.56-0.5-0.84-0.72 c-0.26-0.2-0.54-0.39-0.84-0.54c-0.2-0.11-0.42-0.2-0.65-0.25c-0.07-0.01-0.14-0.01-0.21,0h0.1h-0.55c-0.15,0,0,0,0,0h0.08 c0.08,0,0,0,0,0c-0.04-0.01-0.07-0.01-0.11,0c-0.23,0.05-0.45,0.13-0.66,0.25c-0.29,0.15-0.57,0.34-0.83,0.54 c-0.29,0.22-0.57,0.46-0.84,0.72c-0.53,0.51-1,1-1.3,1.39L78,49l-0.22,0.27c-1.45,1.61-3.87,1.87-5.63,0.61 c-1.12-0.78-1.69-2.13-1.47-3.47c0,0,0.07-0.41,0.27-1.12c0.3-1.02,0.72-1.99,1.25-2.91c0.85-1.5,2-2.8,3.37-3.84 c0.91-0.7,1.92-1.26,3-1.66c0.3-0.12,0.61-0.21,0.92-0.29c0.33-0.09,0.66-0.17,1-0.23l0.62-0.09l0.5-0.05h0.55h0.53h0.26h0.51 c0.34,0,0.67,0.09,1,0.14c0.64,0.11,1.28,0.28,1.89,0.51c1.08,0.39,2.09,0.95,3,1.66c1.38,1.04,2.53,2.34,3.38,3.84 c0.31,0.52,0.58,1.07,0.8,1.64c0.19,0.44,0.35,0.88,0.48,1.34c0.07,0.24,0.13,0.48,0.16,0.72v0.25c0.34,2.04-1.05,3.97-3.09,4.31 c-0.03,0-0.05,0.01-0.08,0.01C89.51,50.88,88,50.3,87.06,49.12z" fill="#422B0D"/>
    <radialGradient id="prop-2_1_" cx="63.06" cy="56.06" gradientTransform="matrix(1 0 0 -1 0 130)" gradientUnits="userSpaceOnUse" r="65.06">
      <stop offset="0.27" stop-color="#FFF176"/>
      <stop offset="1" stop-color="#FFC400"/>
    </radialGradient>
    <path id="prop-2" d="M94.8,78.85c-2.22-3.18-8,0.07-8,0.07s3-2.61,5.5-5c1.6-1.53,3-4.79,1.69-7 S88.87,64.85,87,66l-7.33,4.5c0,0,2.75-1.2,3.58-5.92c0.52-1.91-0.6-3.88-2.51-4.4c-0.36-0.1-0.73-0.14-1.1-0.12 c-1.73,0.15-3.38,0.79-4.77,1.84c-5.3,3.76-19.45,13.35-22.62,13.1c-1.23-0.1-1.34-0.29,1.25-5.83c1.74-3.32,1.9-7.25,0.44-10.7 c-0.85-2-4.77-2.55-6-0.62c-0.93,1.42-1.6,4.9-3.22,8.4C42,72,35.73,79.72,35.22,80.48c-3.73,5.52-10.68,15.81-3.4,27.35 c6.44,10.22,21.14,10.7,28.67,8c14.39-5.1,27.64-14.9,27.89-15.1c2.62-2.08,5-5.13,3.92-7.91c-1.33-3.44-5.74-1.4-5.74-1.4 c2.55-1.55,4.84-3.5,6.77-5.78C95.16,83.28,96.29,81,94.8,78.85z" fill="url(#prop-2_1_)"/>
    <path d="M94.52,86.56c1.18-1.52,3.94-5.07,1.52-8.56c-0.87-1.23-2.08-2-3.49-2.24 c2.37-1.97,4.91-6.57,2.2-10.35c-1.01-1.41-2.94-2.51-6.01-1.8c-2.21,0.51-4.19,2.14-4.19,2.14c0.07-0.27,1.81-5.18-4.2-6.4 c-2.42-0.49-5.17,1.11-6.75,2.3c-9.13,6.48-20.98,12.64-20.58,11.79c3.85-4.67,4.63-11.58,2.26-15.68 c-0.84-1.99-5.96-3.48-7.63-0.74c-1.37,2.25-2.28,7.63-4.84,11.91c-1.98,3.31-11.02,14.7-12.65,20.34c0,0,2.21-3.29,5.7-7.94 c3.71-4.96,8.75-11.38,10.24-14.45c1.35-2.73,1.98-6,3.12-8.22c0.56-0.93,2.83-1.81,4.29,1.05s0.76,6.32-1.26,10.19 c-2.08,4.44-3,4.61-2.06,5.59c3.18,3.27,21.53-9.82,25.6-12.38c1.16-0.88,2.54-1.41,3.93-1.54c2.74-0.39,2.6,3.45,2.6,3.45 c-0.77,3.15-1.26,3.15-4.4,5.79c-2.23,1.87-10.12,7.61-15.24,10.19c0,0,0.09,1.17,2.46,0.5c2.38-0.67,11.71-6.54,16.74-10.57 c0,0,6.52-5.57,9.3-4.79c2.82,0.8,2.57,2.76,1.68,4.62c-0.88,1.86-3.19,4.1-6.85,6.89c-6.58,5-16.77,11.82-16.77,11.82 s0.21,1,2.19,0.43c4.03-1.17,16.61-10.49,16.61-10.49c0.98-0.76,4.26-1.81,5.54,0.34c0.69,1.01,0.53,2.66-1.89,5.52 c-2.88,3.43-11.67,9.41-19.31,13.75c0,0,0.58,0.98,2.69,0.26c2.1-0.72,10.83-6.03,12.21-6.49s2.76-0.9,3.68,0.73 c1.09,2.25-0.37,4.03-3.26,6.33C87.56,99.9,73.8,110.65,59.5,115.5c-7.56,2.56-16.01,1.24-25.7-5.09 c5.88,7.1,18.72,10.27,27.43,7.09c14.65-5.36,28.21-15.25,28.32-15.34c2.1-1.67,6.47-5.13,4.06-10.08 c-0.63-1.11-1.47-1.8-2.39-2.19C92.39,88.88,93.49,87.77,94.52,86.56z" fill="#EB8F00"/>
  </g>
</svg>

<svg viewBox="0 0 128 128" xmlns="http://www.w3.org/2000/svg">
  <defs>
    <radialGradient id="SVGID_1_" cx="27.806129" cy="-73.290302" gradientTransform="matrix(0.98 0 0 -0.93 0 0)" gradientUnits="userSpaceOnUse" r="19.4725">
      <stop offset="0" stop-color="#ED7770"/>
      <stop offset="0.08" stop-color="#ED7770" stop-opacity="0.96"/>
      <stop offset="0.22" stop-color="#ED7770" stop-opacity="0.85"/>
      <stop offset="0.39" stop-color="#ED7770" stop-opacity="0.68"/>
      <stop offset="0.59" stop-color="#ED7770" stop-opacity="0.43"/>
      <stop offset="0.81" stop-color="#ED7770" stop-opacity="0.13"/>
      <stop offset="0.9" stop-color="#ED7770" stop-opacity="0"/>
    </radialGradient>
    <radialGradient id="SVGID_2_" cx="102.404629" cy="-73.290302" gradientTransform="matrix(0.98 0 0 -0.93 0 0)" gradientUnits="userSpaceOnUse" r="19.4725">
      <stop offset="0" stop-color="#ED7770"/>
      <stop offset="0.08" stop-color="#ED7770" stop-opacity="0.96"/>
      <stop offset="0.22" stop-color="#ED7770" stop-opacity="0.85"/>
      <stop offset="0.39" stop-color="#ED7770" stop-opacity="0.68"/>
      <stop offset="0.59" stop-color="#ED7770" stop-opacity="0.43"/>
      <stop offset="0.81" stop-color="#ED7770" stop-opacity="0.13"/>
      <stop offset="0.9" stop-color="#ED7770" stop-opacity="0"/>
    </radialGradient>
    <linearGradient id="face-2_1_" gradientUnits="userSpaceOnUse" x1="63.6" x2="63.6" y1="118.8" y2="7">
      <stop offset="0.16" stop-color="#F4A223"/>
      <stop offset="0.33" stop-color="#F7C02B"/>
      <stop offset="0.81" stop-color="#FDE030" stop-opacity="0"/>
    </linearGradient>
    <radialGradient id="face_1_" cx="63.6" cy="62.9" gradientUnits="userSpaceOnUse" r="56.9597">
      <stop offset="0.5" stop-color="#FDE030"/>
      <stop offset="0.92" stop-color="#F7C02B"/>
      <stop offset="1" stop-color="#F4A223"/>
    </radialGradient>
    <radialGradient id="prop-2_1_" cx="63.06" cy="-73.94" gradientTransform="matrix(1 0 0 -1 0 0)" gradientUnits="userSpaceOnUse" r="65.06">
      <stop offset="0.27" stop-color="#FFF176"/>
      <stop offset="1" stop-color="#FFC400"/>
    </radialGradient>
  </defs>
  <path id="face" d="M63.6,118.8 C35.7,118.8 5.6,101.3 5.6,62.9 C5.6,24.5 35.7,7 63.6,7 C79.1,7 93.4,12.1 104,21.4 C115.5,31.6 121.6,46 121.6,62.9 C121.6,79.8 115.5,94.1 104,104.3 C93.4,113.6 79,118.8 63.6,118.8 Z" fill="url(#face_1_)"/>
  <path id="face-2" d="M63.6,118.8 C35.7,118.8 5.6,101.3 5.6,62.9 C5.6,24.5 35.7,7 63.6,7 C79.1,7 93.4,12.1 104,21.4 C115.5,31.6 121.6,46 121.6,62.9 C121.6,79.8 115.5,94.1 104,104.3 C93.4,113.6 79,118.8 63.6,118.8 Z" fill="url(#face-2_1_)"/>
  <path d="M111.49,29.67 C116.82,38.27 119.6,48.51 119.6,59.9 C119.6,76.8 113.5,91.1 102,101.3 C91.4,110.6 77,115.8 61.6,115.8 C43.54,115.8 24.6,108.45 13.42,92.86 C24.18,110.52 44.42,118.8 63.6,118.8 C79,118.8 93.4,113.6 104,104.3 C115.5,94.1 121.6,79.8 121.6,62.9 C121.6,50.16 118.13,38.84 111.49,29.67 Z" fill="#EB8F00"/>
  <path d="M44.75,68.16 A17.5 17.5 0 1 1 9.75,68.16 A17.5 17.5 0 1 1 44.75,68.16 Z" fill="url(#SVGID_1_)" opacity="0.8"/>
  <path d="M117.86,68.16 A17.5 17.5 0 1 1 82.86,68.16 A17.5 17.5 0 1 1 117.86,68.16 Z" fill="url(#SVGID_2_)" opacity="0.8"/>
  <path d="M49.56,49.12 L49.41,48.92 L49,48.38 L48.47,47.8 C48.25,47.56 47.99,47.31 47.74,47.05 C47.49,46.79 47.18,46.55 46.9,46.33 C46.64,46.13 46.36,45.94 46.06,45.79 C45.86,45.68 45.64,45.59 45.41,45.54 C45.34,45.53 45.27,45.53 45.2,45.54 L45.3,45.54 L44.75,45.54 C44.6,45.54 44.75,45.54 44.75,45.54 L44.83,45.54 C44.91,45.54 44.83,45.54 44.83,45.54 C44.79,45.53 44.76,45.53 44.72,45.54 C44.49,45.59 44.27,45.67 44.06,45.79 C43.77,45.95 43.48,46.13 43.22,46.33 C42.94,46.55 42.65,46.8 42.39,47.05 C41.86,47.56 41.39,48.05 41.09,48.44 L40.57,49.04 L40.34,49.31 C38.9,50.92 36.47,51.18 34.72,49.92 C33.6,49.14 33.03,47.79 33.25,46.45 C33.25,46.45 33.32,46.04 33.51,45.33 C33.82,44.32 34.24,43.34 34.76,42.42 C35.62,40.92 36.77,39.62 38.14,38.58 C39.06,37.87 40.09,37.31 41.19,36.92 C41.49,36.8 41.8,36.71 42.11,36.63 C42.44,36.54 42.77,36.46 43.11,36.4 L43.72,36.31 L44.23,36.26 L44.78,36.26 L45.31,36.26 L45.57,36.26 L46.08,36.26 C46.42,36.26 46.75,36.35 47.08,36.4 C48.87,36.73 50.56,37.47 52,38.58 C53.38,39.62 54.53,40.92 55.38,42.42 C55.69,42.94 55.96,43.49 56.18,44.06 C56.37,44.5 56.53,44.94 56.66,45.4 C56.73,45.64 56.79,45.88 56.82,46.12 L56.82,46.37 C57.12,48.42 55.7,50.32 53.65,50.62 C53.6,50.63 53.56,50.63 53.51,50.64 C52.02,50.88 50.51,50.3 49.56,49.12 Z" fill="#422B0D"/>
  <path d="M87.06,49.12 L86.9,48.92 L86.47,48.38 L85.94,47.8 C85.72,47.56 85.46,47.31 85.21,47.05 C84.96,46.79 84.65,46.55 84.37,46.33 C84.11,46.13 83.83,45.94 83.53,45.79 C83.33,45.68 83.11,45.59 82.88,45.54 C82.81,45.53 82.74,45.53 82.67,45.54 L82.77,45.54 L82.22,45.54 C82.07,45.54 82.22,45.54 82.22,45.54 L82.3,45.54 C82.38,45.54 82.3,45.54 82.3,45.54 C82.26,45.53 82.23,45.53 82.19,45.54 C81.96,45.59 81.74,45.67 81.53,45.79 C81.24,45.94 80.96,46.13 80.7,46.33 C80.41,46.55 80.13,46.79 79.86,47.05 C79.33,47.56 78.86,48.05 78.56,48.44 L78,49 L77.78,49.27 C76.33,50.88 73.91,51.14 72.15,49.88 C71.03,49.1 70.46,47.75 70.68,46.41 C70.68,46.41 70.75,46 70.95,45.29 C71.25,44.27 71.67,43.3 72.2,42.38 C73.05,40.88 74.2,39.58 75.57,38.54 C76.48,37.84 77.49,37.28 78.57,36.88 C78.87,36.76 79.18,36.67 79.49,36.59 C79.82,36.5 80.15,36.42 80.49,36.36 L81.11,36.27 L81.61,36.22 L82.16,36.22 L82.69,36.22 L82.95,36.22 L83.46,36.22 C83.8,36.22 84.13,36.31 84.46,36.36 C85.1,36.47 85.74,36.64 86.35,36.87 C87.43,37.26 88.44,37.82 89.35,38.53 C90.73,39.57 91.88,40.87 92.73,42.37 C93.04,42.89 93.31,43.44 93.53,44.01 C93.72,44.45 93.88,44.89 94.01,45.35 C94.08,45.59 94.14,45.83 94.17,46.07 L94.17,46.32 C94.51,48.36 93.12,50.29 91.08,50.63 C91.05,50.63 91.03,50.64 91,50.64 C89.51,50.88 88,50.3 87.06,49.12 Z" fill="#422B0D"/>
  <path id="prop-2" d="M94.8,78.85 C92.58,75.67 86.8,78.92 86.8,78.92 C86.8,78.92 89.8,76.31 92.3,73.92 C93.9,72.39 95.3,69.13 93.99,66.92 C92.68,64.71 88.87,64.85 87,66 L79.67,70.5 C79.67,70.5 82.42,69.3 83.25,64.58 C83.77,62.67 82.65,60.7 80.74,60.18 C80.38,60.08 80.01,60.04 79.64,60.06 C77.91,60.21 76.26,60.85 74.87,61.9 C69.57,65.66 55.42,75.25 52.25,75 C51.02,74.9 50.91,74.71 53.5,69.17 C55.24,65.85 55.4,61.92 53.94,58.47 C53.09,56.47 49.17,55.92 47.94,57.85 C47.01,59.27 46.34,62.75 44.72,66.25 C42,72 35.73,79.72 35.22,80.48 C31.49,86 24.54,96.29 31.82,107.83 C38.26,118.05 52.96,118.53 60.49,115.83 C74.88,110.73 88.13,100.93 88.38,100.73 C91,98.65 93.38,95.6 92.3,92.82 C90.97,89.38 86.56,91.42 86.56,91.42 C89.11,89.87 91.4,87.92 93.33,85.64 C95.16,83.28 96.29,81 94.8,78.85 Z" fill="url(#prop-2_1_)"/>
  <path d="M94.52,86.56 C95.7,85.04 98.46,81.49 96.04,78 C95.17,76.77 93.96,76 92.55,75.76 C94.92,73.79 97.46,69.19 94.75,65.41 C93.74,64 91.81,62.9 88.74,63.61 C86.53,64.12 84.55,65.75 84.55,65.75 C84.62,65.48 86.36,60.57 80.35,59.35 C77.93,58.86 75.18,60.46 73.6,61.65 C64.47,68.13 52.62,74.29 53.02,73.44 C56.87,68.77 57.65,61.86 55.28,57.76 C54.44,55.77 49.32,54.28 47.65,57.02 C46.28,59.27 45.37,64.65 42.81,68.93 C40.83,72.24 31.79,83.63 30.16,89.27 C30.16,89.27 32.37,85.98 35.86,81.33 C39.57,76.37 44.61,69.95 46.1,66.88 C47.45,64.15 48.08,60.88 49.22,58.66 C49.78,57.73 52.05,56.85 53.51,59.71 C54.97,62.57 54.27,66.03 52.25,69.9 C50.17,74.34 49.25,74.51 50.19,75.49 C53.37,78.76 71.72,65.67 75.79,63.11 C76.95,62.23 78.33,61.7 79.72,61.57 C82.46,61.18 82.32,65.02 82.32,65.02 C81.55,68.17 81.06,68.17 77.92,70.81 C75.69,72.68 67.8,78.42 62.68,81 C62.68,81 62.77,82.17 65.14,81.5 C67.52,80.83 76.85,74.96 81.88,70.93 C81.88,70.93 88.4,65.36 91.18,66.14 C94,66.94 93.75,68.9 92.86,70.76 C91.98,72.62 89.67,74.86 86.01,77.65 C79.43,82.65 69.24,89.47 69.24,89.47 C69.24,89.47 69.45,90.47 71.43,89.9 C75.46,88.73 88.04,79.41 88.04,79.41 C89.02,78.65 92.3,77.6 93.58,79.75 C94.27,80.76 94.11,82.41 91.69,85.27 C88.81,88.7 80.02,94.68 72.38,99.02 C72.38,99.02 72.96,100 75.07,99.28 C77.17,98.56 85.9,93.25 87.28,92.79 C88.66,92.33 90.04,91.89 90.96,93.52 C92.05,95.77 90.59,97.55 87.7,99.85 C87.56,99.9 73.8,110.65 59.5,115.5 C51.94,118.06 43.49,116.74 33.8,110.41 C39.68,117.51 52.52,120.68 61.23,117.5 C75.88,112.14 89.44,102.25 89.55,102.16 C91.65,100.49 96.02,97.03 93.61,92.08 C92.98,90.97 92.14,90.28 91.22,89.89 C92.39,88.88 93.49,87.77 94.52,86.56 Z" fill="#EB8F00"/>
</svg>
